svg/fluentui-system-icons/ic_fluent_quiz_new_20_regular.svg

<svg width="20" height="20" viewBox="0 0 20 20" fill="none" xmlns="http://www.w3.org/2000/svg">
<path d="M5.5 3C4.11929 3 3 4.11929 3 5.5V14.5C3 15.8807 4.11929 17 5.5 17H9.59971C9.43777 16.6832 9.30564 16.3486 9.20703 16H5.5C4.67157 16 4 15.3284 4 14.5V5.5C4 4.67157 4.67157 4 5.5 4H14.5C15.3284 4 16 4.67157 16 5.5V9.20703C16.3486 9.30564 16.6832 9.43777 17 9.59971V5.5C17 4.11929 15.8807 3 14.5 3H5.5ZM9.20703 13C9.30564 12.6514 9.43777 12.3168 9.59971 12H5.5C5.22386 12 5 12.2239 5 12.5C5 12.7761 5.22386 13 5.5 13H9.20703ZM8.5 15C8.77614 15 9 14.7761 9 14.5C9 14.2239 8.77614 14 8.5 14H5.5C5.22386 14 5 14.2239 5 14.5C5 14.7761 5.22386 15 5.5 15H8.5ZM8 5C8.19759 5 8.37666 5.11637 8.45691 5.29693L10.4569 9.79693C10.5691 10.0493 10.4554 10.3448 10.2031 10.4569C9.95073 10.5691 9.65525 10.4554 9.54309 10.2031L9.0084 9H6.9916L6.45691 10.2031C6.34475 10.4554 6.04927 10.5691 5.79693 10.4569C5.54459 10.3448 5.43094 10.0493 5.54309 9.79693L7.54309 5.29693C7.62334 5.11637 7.80241 5 8 5ZM8.56395 8L8 6.73111L7.43605 8H8.56395ZM13.5 5.5C13.5 5.22386 13.2761 5 13 5C12.7239 5 12.5 5.22386 12.5 5.5V6.5H11.5C11.2239 6.5 11 6.72386 11 7C11 7.27614 11.2239 7.5 11.5 7.5H12.5V8.5C12.5 8.77614 12.7239 9 13 9C13.2761 9 13.5 8.77614 13.5 8.5V7.5H14.5C14.7761 7.5 15 7.27614 15 7C15 6.72386 14.7761 6.5 14.5 6.5H13.5V5.5ZM19 14.5C19 16.9853 16.9853 19 14.5 19C12.0147 19 10 16.9853 10 14.5C10 12.0147 12.0147 10 14.5 10C16.9853 10 19 12.0147 19 14.5ZM15 12.5C15 12.2239 14.7761 12 14.5 12C14.2239 12 14 12.2239 14 12.5V14H12.5C12.2239 14 12 14.2239 12 14.5C12 14.7761 12.2239 15 12.5 15H14V16.5C14 16.7761 14.2239 17 14.5 17C14.7761 17 15 16.7761 15 16.5V15H16.5C16.7761 15 17 14.7761 17 14.5C17 14.2239 16.7761 14 16.5 14H15V12.5Z" fill="#212121"/>
</svg>

<svg xmlns="http://www.w3.org/2000/svg" width="20" height="20"><path d="M5.5 3A2.5 2.5 0 0 0 3 5.5v9A2.5 2.5 0 0 0 5.5 17h4.1a5.465 5.465 0 0 1-.393-1H5.5A1.5 1.5 0 0 1 4 14.5v-9A1.5 1.5 0 0 1 5.5 4h9A1.5 1.5 0 0 1 16 5.5v3.707c.349.099.683.23 1 .393V5.5A2.5 2.5 0 0 0 14.5 3h-9Zm3.707 10c.099-.349.23-.683.393-1H5.5a.5.5 0 0 0 0 1h3.707ZM8.5 15a.5.5 0 0 0 0-1h-3a.5.5 0 0 0 0 1h3ZM8 5a.5.5 0 0 1 .457.297l2 4.5a.5.5 0 1 1-.914.406L9.008 9H6.992l-.535 1.203a.5.5 0 0 1-.914-.406l2-4.5A.5.5 0 0 1 8 5Zm.564 3L8 6.731 7.436 8h1.128ZM13.5 5.5a.5.5 0 0 0-1 0v1h-1a.5.5 0 0 0 0 1h1v1a.5.5 0 0 0 1 0v-1h1a.5.5 0 0 0 0-1h-1v-1Zm5.5 9a4.5 4.5 0 1 1-9 0 4.5 4.5 0 0 1 9 0Zm-4-2a.5.5 0 0 0-1 0V14h-1.5a.5.5 0 0 0 0 1H14v1.5a.5.5 0 0 0 1 0V15h1.5a.5.5 0 0 0 0-1H15v-1.5Z"/></svg>
